X: 166
T: The Old Plaid Shawl
N:"Slow" "collected by J. O'Neill"
B:O'Neill's 166
Z:Transcribed by henrik.norbeck@mailbox.swipnet.se
M:3/4
L:1/8
K:G
(d/c/) BB \
| (">"B2 A)G FG | ">"A2 de fg | (">"e2 c)A GG | F3 (d/c/) BB \
| (">"B2 A)G FG | A2 d>e fg | (e>c) (AF) GG | G3 ||
(d/e/) ff \
| (">"f2 e)d ^cA | d3 (d/e/) fg | (e2 c)A GG | F3 (d/c/) BB |
| (">"B2 A)G FG | A2 d>e fg | (e>c) (AF) GG | G3 |]


